src/cyfwms-twn-client/public/img/feather.svg

<svg width="150" height="150" overflow="hidden" version="1.1" xml:space="preserve" xmlns="http://www.w3.org/2000/svg"><defs><clipPath id="clip0"><rect x="338" y="428" width="140" height="114"/></clipPath></defs><g transform="matrix(.95814 0 0 1.0068 -315.17 -414.29)" clip-path="url(#clip0)"><path transform="matrix(1.2281 0 0 1 338 428)" d="m28.159 94.782c12.627-6.6264 23.868-15.61 33.116-26.465 5.2015-5.9435 9.6932-12.472 13.384-19.455 0.5176-0.9826 0.8874-2.0361 1.0973-3.1267 0.0288-0.1461-0.0662-0.2879-0.2122-0.3167-0.113-0.0224-0.2276 0.0295-0.2854 0.129-3.3698 5.7687-7.2464 11.226-11.584 16.307-10.435 12.35-23.505 22.205-38.249 28.841-1.9-2.4581-4.6835-3.0424-8.7935-3.889 3.971-3.2372 8.6973-3.2301 13.02-0.5036-0.4988-0.8431-1.032-1.6969-1.6174-2.5566-1.9052-2.8926-4.1973-5.5107-6.8127-7.7817 3.7074-2.1969 7.625-1.7421 11.05 3.2905 0.2672 0.3919 0.5106 0.8147 0.7541 1.235 0.3237-4.9518 1.5352-9.8053 3.5767-14.328 0.4413-0.9042 0.944-1.7771 1.5046-2.6125 0.1677-0.2485 0.5049-0.314 0.7533-0.1463 0.1244 0.0839 0.2084 0.2155 0.2323 0.3636 0.552 3.1616 1.7222 6.1833 3.4438 8.892 0.0497 0.0776 0.1357 0.1247 0.228 0.1247 0.0377 2e-4 0.075-0.0079 0.1092-0.0238 0.1254-0.053 0.1919-0.1907 0.1556-0.3218-0.0155-0.0546-0.0297-0.1092-0.0452-0.1639-1.809-7.067 0.1677-14.567 5.225-19.824 3.048-3.1969 5.8282-6.6387 8.3125-10.291 3.2158-4.7274 6.276-10.603 9.5107-16.064 0.1534-0.259 0.4879-0.3445 0.7468-0.191 0.1148 0.068 0.2005 0.1757 0.2412 0.3027 0.9809 3.2807 2.6396 6.3189 4.8688 8.9181 0.0508 0.0601 0.1255 0.0949 0.2042 0.095 0.0509-4e-4 0.1006-0.0148 0.1437-0.0416 0.1124-0.0714 0.1566-0.2135 0.1045-0.336-1.7513-4.0425-2.3821-8.482-1.8264-12.852 0.3239-2.5181 1.4256-4.8724 3.1517-6.7343 4.7001-5.0837 10.094-7.5857 16.862-4.2275 4.6835 2.3228 7.233 8.4705 7.0965 16.809-0.0702 4.4077-2.525 8.4309-6.4125 10.509-1.5772 0.8335-3.2414 1.4905-4.9626 1.9593-0.1438 0.0411-0.227 0.1909-0.1861 0.3347 0.032 0.1118 0.1317 0.1908 0.2478 0.1962 0.2696 0.0083 0.5404 0.013 0.8076 0.013 2.7116-0.0014 5.4041-0.4544 7.9669-1.3407 0.2787-0.1046 0.5896 0.0366 0.6942 0.3153 0.0384 0.1024 0.0448 0.214 0.0183 0.32-1.798 6.5597-4.422 12.864-7.809 18.762-3.7915 6.7506-8.3155 13.063-13.49 18.822-3.5971 3.9949-8.6542 6.369-14.026 6.5847-1.7468 0.053-3.4943-0.0832-5.2119-0.4061-0.1306-0.0235-0.2591 0.0508-0.304 0.1757-0.0441 0.1263 0.0109 0.2658 0.1294 0.3278 2.3251 1.2244 4.8331 2.0644 7.4267 2.4878 0.2923 0.0527 0.4867 0.3324 0.434 0.6247-0.0264 0.1465-0.1121 0.2753-0.2369 0.3562-7.1143 4.484-14.939 6.4125-22.884 3.192 0.9769 0.9546 1.859 2.0017 2.6338 3.1267 3.4224 5.0338 2.4059 8.8447-0.9998 11.486-1.151-3.267-2.7435-6.3605-4.7334-9.1951-0.7541-1.1091-1.5295-2.147-2.3049-3.1088 0.3384 5.5349-2.1649 9.9199-7.2925 11.674 1.5806-4.27 2.6006-7.0498 1.0284-10.272z" fill="#c00000" stroke="#000" stroke-width="2.4428"/></g></svg>

<svg width="140" height="114" xmlns="http://www.w3.org/2000/svg" xmlns:xlink="http://www.w3.org/1999/xlink" xml:space="preserve" overflow="hidden"><defs><clipPath id="clip0"><rect x="338" y="428" width="140" height="114"/></clipPath></defs><g clip-path="url(#clip0)" transform="translate(-338 -428)"><path d="M28.1592 94.7815C40.7862 88.1551 52.0272 79.1718 61.275 68.3169 66.4765 62.3734 70.9682 55.8446 74.6593 48.8621 75.1769 47.8795 75.5467 46.826 75.7566 45.7354 75.7854 45.5893 75.6904 45.4475 75.5444 45.4187 75.4314 45.3963 75.3168 45.4482 75.259 45.5477 71.8892 51.3164 68.0126 56.7735 63.6749 61.8545 53.2395 74.2045 40.1696 84.0596 25.4256 90.6953 23.5256 88.2372 20.7421 87.6529 16.6321 86.8063 20.6031 83.5691 25.3294 83.5762 29.6519 86.3027 29.1531 85.4596 28.6199 84.6058 28.0345 83.7461 26.1293 80.8535 23.8372 78.2354 21.2218 75.9644 24.9292 73.7675 28.8468 74.2223 32.2715 79.2549 32.5387 79.6468 32.7821 80.0696 33.0256 80.4899 33.3493 75.5381 34.5608 70.6846 36.6023 66.1616 37.0436 65.2574 37.5463 64.3845 38.1069 63.5491 38.2746 63.3006 38.6118 63.2351 38.8602 63.4028 38.9846 63.4867 39.0686 63.6183 39.0925 63.7664 39.6445 66.928 40.8147 69.9497 42.5363 72.6584 42.586 72.736 42.672 72.7831 42.7643 72.7831 42.802 72.7833 42.8393 72.7752 42.8735 72.7593 42.9989 72.7063 43.0654 72.5686 43.0291 72.4375 43.0136 72.3829 42.9994 72.3283 42.9839 72.2736 41.1749 65.2066 43.1516 57.7068 48.2089 52.4495 51.2569 49.2526 54.0371 45.8108 56.5214 42.1586 59.7372 37.4312 62.7974 31.5554 66.0321 26.0941 66.1855 25.8351 66.52 25.7496 66.7789 25.9031 66.8937 25.9711 66.9794 26.0788 67.0201 26.2058 68.001 29.4865 69.6597 32.5247 71.8889 35.1239 71.9397 35.184 72.0144 35.2188 72.0931 35.2189 72.144 35.2185 72.1937 35.2041 72.2368 35.1773 72.3492 35.1059 72.3934 34.9638 72.3413 34.8413 70.59 30.7988 69.9592 26.3593 70.5149 21.9889 70.8388 19.4708 71.9405 17.1165 73.6666 15.2546 78.3667 10.1709 83.7603 7.66888 90.5291 11.0271 95.2126 13.3499 97.7621 19.4976 97.6256 27.8362 97.5554 32.2439 95.1006 36.2671 91.2131 38.3456 89.6359 39.1791 87.9717 39.8361 86.2505 40.3049 86.1067 40.346 86.0235 40.4958 86.0644 40.6396 86.0964 40.7514 86.1961 40.8304 86.3122 40.8358 86.5818 40.8441 86.8526 40.8488 87.1198 40.8488 89.8314 40.8474 92.5239 40.3944 95.0867 39.5081 95.3654 39.4035 95.6763 39.5447 95.7809 39.8234 95.8193 39.9258 95.8257 40.0374 95.7992 40.1434 94.0012 46.7031 91.3772 53.0076 87.9902 58.9059 84.1987 65.6565 79.6747 71.9686 74.5002 77.7278 70.9031 81.7227 65.846 84.0968 60.4746 84.3125 58.7278 84.3655 56.9803 84.2293 55.2627 83.9064 55.1321 83.8829 55.0036 83.9572 54.9587 84.0821 54.9146 84.2084 54.9696 84.3479 55.0881 84.4099 57.4132 85.6343 59.9212 86.4743 62.5148 86.8977 62.8071 86.9504 63.0015 87.2301 62.9488 87.5224 62.9224 87.6689 62.8367 87.7977 62.7119 87.8786 55.5976 92.3626 47.7731 94.2911 39.8276 91.0706 40.8045 92.0252 41.6866 93.0723 42.4614 94.1973 45.8838 99.2311 44.8673 103.042 41.4616 105.683 40.3106 102.416 38.7181 99.3225 36.7282 96.4879 35.9741 95.3788 35.1987 94.3409 34.4233 93.3791 34.7617 98.914 32.2584 103.299 27.1308 105.053 28.7114 100.783 29.7314 98.0032 28.1592 94.7815Z" stroke="#000000" stroke-width="2.44285" fill="#C00000" transform="matrix(1.22807 0 0 1 338 428)"/></g></svg>
